!!!!SEGMENT: pl-cz--ii-16--007_szlagorski-walenty--talnce-mazur-1.krn
!!!cenid: 18xx:1071
!!!COM: Szlagórski, Walenty
!!!COM-rismID: pe30111815
!!!CDT: 1801-1863/07/16
!!!CNT: Polish
!!!GTL: Tańce
!!!OTL: Mazur 1
!!!PDT:
!!!AGN: Secular; Mazurka
!!!SMS-siglum: PL-CZ
!!!SMS-shelfmark: II-16
!!!SMS-shelfwork: 007 G
!!!SMS-variant:
!!!SMS-altvar:
!!!NIFC-rismSourceID: 300001293
!!!NIFC-rismChildID: 300001300
!!!NIFC-islandoraID: pl-cz:32636
!!!URL-pdf-islandora: https://repozytorium.nifc.pl/islandora/object/pl-cz%3A32636/datastream/PDF/view
!!!URL-scan: https://polish.musicsources.pl/pl/lokalizacje/galeria/rekopisy/6770/1 @EN{Scan on Polish Music Sources Website} @PL{Skany w portalu Dziedzictwo Muzyki Polskiej w otwartym dostępie}
!!!ONB-nifc: UWAGA: zbiór zawiera Walce nr 1-5, Galop, Mazury nr 1-4
!!!AIN: 1 clars 2 cor 3 empty 1 flt 2 violn
!!!key: D
**kern	**dynam	**kern	**dynam	**kern	**dynam	**kern	**dynam	**kern	**dynam	**kern	**dynam	**kern	**dynam	**kern	**dynam	**kern	**dynam
*part9	*part9	*part8	*	*part7	*part7	*part6	*	*part5	*part5	*part4	*part4	*part3	*	*part2	*	*part1	*
*group3	*sgroup3	*group3	*	*group3	*group3	*group2	*	*group2	*group2	*group2	*group2	*group1	*	*group1	*	*group1	*
*staff9	*	*staff8	*	*staff7	*	*staff6	*	*staff5	*	*staff4	*	*staff3	*	*staff2	*	*staff1	*
*Iempty	*	*Ivioln	*	*Ivioln	*	*Iempty	*	*Icor	*	*Icor	*	*Iclars	*	*Iempty	*	*Iflt	*
*I"Baſso	*	*I"Violino 2.do	*	*I"Violino 1mo	*	*I"Clarino. in D.	*	*I"Corno 2do in D.	*	*I"Corno 1mo in D.	*	*I"Clarnetto 2do in A.	*	*I"Clarnetto 1mo in A.	*	*I"Flauto	*
*mI"Basso	*	*mI"Violino II	*	*mI"Violino I	*	*mI"Clarino in D	*	*mI"Corno II in D	*	*mI"Corno I in D	*	*mI"Clarinetto II in D	*	*mI"Clarinetto I in D	*	*mI"Flauto	*
*I'b	*	*I'vl 2	*	*I'vl 1	*	*I'clno in D	*	*I'cor 2 in D	*	*I'cor 1 in D	*	*I'cl 2 in D	*	*I'cl 1 in D	*	*I'fl	*
*	*	*mI'vl II	*	*mI'vl I	*	*	*	*mI'cor II in D	*	*mI'cor I in D	*	*mI'cl II in D	*	*mI'cl I in D	*	*	*
*Icbass	*	*Ivioln	*	*Ivioln	*	*Iclrno	*	*Icor	*	*Icor	*	*Iclars	*	*Iclars	*	*Iflt	*
*ICstr	*	*ICstr	*	*ICstr	*	*ICbras	*	*ICbras	*	*ICbras	*	*ICww	*	*ICww	*	*ICww	*
*clefF4	*	*clefG2	*	*clefG2	*	*clefG2	*	*clefG2	*	*clefG2	*	*clefG2	*	*clefG2	*	*clefG2	*
*ITrd0c0	*	*	*	*	*	*ITrd-1c-2	*	*ITrd6c10	*	*ITrd6c10	*	*ITrd2c3	*	*ITrd2c3	*	*	*
*k[f#c#]	*	*k[f#c#]	*	*k[f#c#]	*	*k[f#c#]	*	*k[f#c#]	*	*k[f#c#]	*	*k[f#c#]	*	*k[f#c#]	*	*k[f#c#]	*
*D:	*	*D:	*	*D:	*	*D:	*	*D:	*	*D:	*	*D:	*	*D:	*	*D:	*
*M3/8	*	*M3/8	*	*M3/8	*	*M3/8	*	*M3/8	*	*M3/8	*	*M3/8	*	*M3/8	*	*M3/8	*
*>[A,A,B,B,C,C,A,A]	*	*>[A,A,B,B,C,C,A,A]	*	*>[A,A,B,B,C,C,A,A]	*	*>[A,A,B,B,C,C,A,A]	*	*>[A,A,B,B,C,C,A,A]	*	*>[A,A,B,B,C,C,A,A]	*	*>[A,A,B,B,C,C,A,A]	*	*>[A,A,B,B,C,C,A,A]	*	*>[A,A,B,B,C,C,A,A]	*
=1	=1	=1	=1	=1	=1	=1	=1	=1	=1	=1	=1	=1	=1	=1	=1	=1	=1
*>A	*	*>A	*	*>A	*	*>A	*	*>A	*	*>A	*	*>A	*	*>A	*	*>A	*
*	*	*	*	*^	*	*	*	*	*	*	*	*	*	*	*	*	*
*	*	*	*	*cue	*	*	*	*	*	*	*	*	*	*	*	*	*	*
!	!	!	!LO:DY:t= :mod=%s	!	!LO:DY:t= :mod=%s	!	!	!LO:DY:t= :mod=%s	!	!	!	!	!	!LO:DY:t= :mod=%s	!	!LO:DY:t= :mod=%s	!	!LO:DY:t= :mod=%s
!	!LO:MO:mod=!null:null	!	!LO:MO:mod=!LO&colon;DY&colon;ed=brack	!	!	!LO:MO:mod=!LO&colon;DY&colon;ed=brack	!LO:MO:mod=!null:null	!LO:MO:mod=!LO&colon;DY&colon;ed=brack	!LO:MO:mod=!null:null	!LO:MO:mod=!null:null	!LO:MO:mod=!null:null	!	!LO:MO:mod=!null:null	!LO:MO:mod=!LO&colon;DY&colon;ed=brack	!LO:MO:mod=!null:null	!LO:MO:mod=!LO&colon;DY&colon;ed=brack	!	!LO:MO:mod=!LO&colon;DY&colon;ed=brack
!	!LO:DY:rj	!	!mull	!	!	!null	!LO:TX:t=in D.	!null	!LO:TX:t=in D.	!LO:DY:rj	!LO:TX:t=in D.	!	!LO:TX:t=in A	!null	!LO:TX:t=in A.	!null	!	!null
8D\L	f	8dL 8A/	f	8ddd\L	8f#\L	f	8d/L	ff	8F#/L	ff	8d\L	ff	8f#\L	f	8dd\L	f	8ddd\L	f
8D\	.	8d 8A/	.	8aa\	8f#\	.	8A/	.	8F#/	.	8d\	.	8f#\	.	8a\	.	8aa\	.
8D\J	.	8dJ 8A/	.	8fff#\J	8f#\J	.	8f#/J	.	8F#/J	.	8d\J	.	8dd\J	.	8ff#\J	.	8fff#\J	.
=2	=2	=2	=2	=2	=2	=2	=2	=2	=2	=2	=2	=2	=2	=2	=2	=2	=2	=2
8D\L	.	8A/L	.	16.ccc#\LL	8e\L	.	8a/L	.	8A/L	.	8e\L	.	8g\L	.	16.cc#\LL	.	16.ccc#\LL	.
.	.	.	.	32ddd\JJk	.	.	.	.	.	.	.	.	.	.	32dd\JJk	.	32ddd\JJk	.
8D\	.	8c#/	.	8eee\L	8g\	.	8A/	.	8A/	.	8e\	.	8g\	.	8ee\L	.	8eee\L	.
8D\J	.	8d/J	.	8ddd\J	8f#\J	.	8d/J	.	8F#/J	.	8d\J	.	8f#\J	.	8dd\J	.	8ddd\J	.
*	*	*	*	*Xcue	*	*	*	*	*	*	*	*	*	*	*	*	*	*
*	*	*	*	*v	*v	*	*	*	*	*	*	*	*	*	*	*	*	*
=3	=3	=3	=3	=3	=3	=3	=3	=3	=3	=3	=3	=3	=3	=3	=3	=3	=3
*	*	*	*	*	*	*	*	*tremolo	*	*	*	*	*	*	*	*	*
*	*	*	*	*	*	*	*	*	*	*tremolo	*	*	*	*	*	*	*
!	!	!	!	!	!	!LO:MO:mod=!null:null	!	!	!	!	!	!	!	!	!	!	!
!	!	!	!	!	!	!LO:TX:a:t=1	!	!	!	!	!	!	!	!	!	!	!
8G\L	.	8g/L	.	8bb\L	.	4.r	.	8D/L	.	8d\L	.	8b\L	.	8dd\L	.	8bb\L	.
8B\	.	8b/	.	8ddd\	.	.	.	8D/	.	8d\	.	8b\	.	8dd\	.	8ddd\	.
8G\J	.	8g/J	.	8bb\J	.	.	.	8D/J	.	8d\J	.	8g\J	.	8b\J	.	8bb\J	.
*	*	*	*	*	*	*	*	*	*	*Xtremolo	*	*	*	*	*	*	*
*	*	*	*	*	*	*	*	*Xtremolo	*	*	*	*	*	*	*	*	*
=4	=4	=4	=4	=4	=4	=4	=4	=4	=4	=4	=4	=4	=4	=4	=4	=4	=4
!	!	!	!	!	!	!	!	!	!	!	!	!LO:SIC:v:s=(8e#X\L	!	!LO:SIC:v:s=(8b\L	!	!	!
8D\L	.	(<8e#X/L	.	(8gg#X\L	.	8d/L	.	8D/L	.	8D/L	.	8e#X\L	.	8b\L	.	(8gg#X\L	.
!	!	!	!	!	!	!	!	!	!	!LO:SIC:v:s=8D/J	!	!LO:SIC:v:s=8f#\J)	!	!LO:SIC:v:s=8a\J)	!	!	!
8D\J	.	8f#/J)	.	8aa\J)	.	8d/J	.	8D/J	.	8E/J	.	8f#\J	.	8a\J	.	8aa\J)	.
8r	.	8r	.	8r	.	8r	.	8r	.	8r	.	8r	.	8r	.	8r	.
=5	=5	=5	=5	=5	=5	=5	=5	=5	=5	=5	=5	=5	=5	=5	=5	=5	=5
*	*	*	*	*^	*	*	*	*	*	*	*	*	*	*	*	*	*
*	*	*	*	*cue	*	*	*	*	*	*	*	*	*	*	*	*	*	*
!	!	!	!	!	!	!	!LO:MO:mod=!null:null	!	!	!	!	!	!	!	!	!	!LO:MO:mod=!null:null	!
!	!	!	!	!	!	!	!LO:TX:a:t=1	!	!	!	!	!	!	!	!	!	!LO:TX:a:t=3	!
!	!	!	!	!	!	!	!	!	!	!	!	!	!	!	!	!	!LO:MO:mod=!null:null	!
!	!	!	!	!LO:SIC:v:s=(16aa#X/LL	!	!	!	!	!	!	!	!	!	!	!LO:SIC:v:s=(16aa#X\LL	!	!LO:N:vis=0	!
4AA/	.	8r	.	16aa#X/LL	8r	.	4.r	.	8r	.	8r	.	8r	.	16aa#X\LL	.	2.r	.
!	!	!	!	!LO:SIC:v:s=16bb/JJ)	!	!	!	!	!	!	!	!	!	!	!LO:SIC:v:s=16bb\JJ)	!	!	!
.	.	.	.	16bb/JJ	.	.	.	.	.	.	.	.	.	.	16bb\JJ	.	.	.
.	.	8e/L	.	8.cc#/L	8gL 8A\	.	.	.	8A/L	.	8e\L	.	8g\L	.	8.cc#\L	.	.	.
8r	.	8e/J	.	.	8gJ 8A\	.	.	.	8A/J	.	8e\J	.	8g\J	.	.	.	.	.
.	.	.	.	16ee/Jk	.	.	.	.	.	.	.	.	.	.	16ee\Jk	.	.	.
!	!	!	!	!LO:LB:g=original	!	!	!	!	!	!	!	!	!	!	!	!	!	!
=6	=6	=6	=6	=6	=6	=6	=6	=6	=6	=6	=6	=6	=6	=6	=6	=6	=6	=6
!	!	!	!	!	!	!	!	!	!	!	!	!	!	!	!LO:SIC:v:s=(16.gg\LL	!	!	!
4D\	.	8r	.	16.gg/LL	8r	.	8r	.	8r	.	8r	.	8r	.	16.gg\LL	.	.	.
!	!	!	!	!	!	!	!	!	!	!	!	!	!	!	!LO:SIC:v:s=32ff#\JJk)	!	!	!
.	.	.	.	32ff#/JJk	.	.	.	.	.	.	.	.	.	.	32ff#\JJk	.	.	.
.	.	8d/L	.	8dd/L	8f#L 8A\	.	16d/LL	.	8d\L	.	8f#\L	.	8f#/L	.	8dd\L	.	.	.
.	.	.	.	.	.	.	16f#/JJ	.	.	.	.	.	.	.	.	.	.	.
8r	.	8d/J	.	16ff#/L	8f#J 8A\	.	8a/	.	8d\J	.	8f#\J	.	8f#/J	.	16ff#\L	.	.	.
.	.	.	.	16aa/JJ	.	.	.	.	.	.	.	.	.	.	16aa\JJ	.	.	.
!	!	!	!	!	!	!	!	!	!	!	!	!	!	!	!LO:LB:g=original	!	!	!
=7	=7	=7	=7	=7	=7	=7	=7	=7	=7	=7	=7	=7	=7	=7	=7	=7	=7	=7
!	!	!	!	!	!	!	!LO:MO:mod=!null:null	!	!	!	!	!	!	!	!	!	!	!
!	!	!	!	!LO:SIC:v:s=(16aa#X/LL	!LO:SIC:v:s=8r	!	!LO:TX:a:t=1	!	!	!	!	!	!	!	!	!	!	!
4A\	.	8r	.	16aa#X/LLyy	8ryy	.	4.r	.	8r	.	8r	.	8r	.	(16aa#X\LL	.	4.r	.
!	!	!	!	!LO:SIC:v:s=16bb/JJ)	!	!	!	!	!	!	!	!	!	!	!	!	!	!
.	.	.	.	16bb/JJyy	.	.	.	.	.	.	.	.	.	.	16bb\JJ)	.	.	.
!	!	!	!	!LO:SIC:v:s=8.cc#/L	!LO:SIC:v:s=8g 8A\L	!	!	!	!	!	!	!	!	!	!	!	!	!
.	.	8e/L	.	8.cc#/Lyy	8gyy 8A\Lyy	.	.	.	8A/L	.	8e\L	.	8g/L	.	8.cc#\L	.	.	.
!	!	!	!	!	!LO:SIC:v:s=8g 8A\J	!	!	!	!	!	!	!	!	!	!	!	!	!
8r	.	8e/J	.	.	8gyy 8A\Jyy	.	.	.	8A/J	.	8e\J	.	8g/J	.	.	.	.	.
!	!	!	!	!LO:SIC:v:s=16ee/Jk	!	!	!	!	!	!	!	!	!	!	!	!	!	!
.	.	.	.	16ee/Jkyy	.	.	.	.	.	.	.	.	.	.	16ee\Jk	.	.	.
!LO:LB:g=original	!	!LO:LB:g=original	!	!	!	!	!	!	!	!	!	!	!	!	!	!	!LO:LB:g=original	!
=8	=8	=8	=8	=8	=8	=8	=8	=8	=8	=8	=8	=8	=8	=8	=8	=8	=8	=8
!	!	!	!	!	!LO:MO:mod=!null:null	!	!	!	!	!	!	!	!	!	!	!	!LO:MO:mod=!null:null	!
!	!	!	!	!	!LO:N:vis=4	!	!	!	!	!	!	!	!	!	!	!	!LO:N:vis=4	!
8D\L	.	8d/L	.	16gg/LL	8f# 8A\L	.	8d/L	.	8F#/L	.	8d\L	.	8f#/L	.	(16gg\LL	.	8r	.
.	.	.	.	16ff#/JJ	.	.	.	.	.	.	.	.	.	.	16ff#\JJ)	.	.	.
!	!	!	!	!	!	!	!	!	!	!	!	!	!	!	!LO:MO:mod=!null:null	!	!	!
!	!	!	!	!	!	!	!	!	!LO:TX:t=P:problem:repetycja po 8r	!	!LO:TX:t=P:problem:repetycja po 8r	!	!	!	!LO:N:vis=4	!	!	!
!	!	!	!	!LO:MO:mod=!null:null	!LO:MO:mod=!null:null	!	!	!	!	!	!	!	!	!	!	!	!	!
!	!	!	!	!LO:N:vis=4	!LO:N:vis=4	!	!	!	!	!	!	!	!	!	!	!	!	!
8dJ 8D\	.	8d/J	.	8dd/	8f# 8A\J	.	8d/J	.	8F#/J	.	8d\J	.	8f#/J	.	8dd\	.	8r	.
!	!	!	!	!	!	!	!LO:LB:g=original	!	!	!	!	!	!	!	!	!	!	!
=:|!|:	=:|!|:	=:|!|:	=:|!|:	=:|!|:	=:|!|:	=:|!|:	=:|!|:	=:|!|:	=:|!|:	=:|!|:	=:|!|:	=:|!|:	=:|!|:	=:|!|:	=:|!|:	=:|!|:	=:|!|:	=:|!|:
*>B	*	*>B	*	*>B	*	*>B	*>B	*	*	*>B	*	*>B	*>B	*	*>B	*	*>B	*
*	*	*	*	*Xcue	*	*	*	*	*	*	*	*	*	*	*	*	*	*
!	!	!	!	!	!	!	!	!	!	!	!	!	!	!	!LO:SIC:v:s=8r	!	!	!
8r	.	8r	.	8ee\	8ryy	.	8r	.	8r	.	8r	.	8r	.	8ryy	.	8eee\	.
*	*	*	*	*v	*v	*	*	*	*	*	*	*	*	*	*	*	*	*
!	!	!	!	!	!	!	!	!	!	!LO:LB:g=original	!	!LO:LB:g=original	!	!LO:LB:g=original	!	!	!
=9	=9	=9	=9	=9	=9	=9	=9	=9	=9	=9	=9	=9	=9	=9	=9	=9	=9
!	!	!	!	!	!	!LO:MO:mod=!null:null	!	!	!	!	!	!	!	!	!	!	!
!	!	!	!	!	!	!LO:TX:a:t=4	!	!	!	!	!	!	!	!	!	!	!
!	!	!	!	!	!	!LO:MO:mod=!null:null	!	!	!	!	!	!	!	!	!	!	!
!	!	!	!	!	!	!LO:N:vis=00	!	!	!	!	!	!	!	!	!	!	!
4E\	.	8r	.	(16dd#X\LL	.	1.r	.	8d\L	.	8e\L	.	8d/L	.	8g#\L	.	(16ddd#X\LL	.
.	.	.	.	16ee\JJ)	.	.	.	.	.	.	.	.	.	.	.	16eee\JJ)	.
.	.	8eL 8d/	.	8.b\L	.	.	.	8d\	.	8e\	.	8d/	.	8g#\	.	8.bb\L	.
8r	.	8eJ 8d/	.	.	.	.	.	8d\J	.	8e\J	.	8d/J	.	8g#\J	.	.	.
.	.	.	.	16ddn\Jk	.	.	.	.	.	.	.	.	.	.	.	16dddn\Jk	.
!	!	!	!	!	!	!	!	!LO:LB:g=original	!	!	!	!	!	!	!	!	!
=10	=10	=10	=10	=10	=10	=10	=10	=10	=10	=10	=10	=10	=10	=10	=10	=10	=10
4A 4AA\	.	8r	.	(16cc#/LL	.	.	.	8r	.	8r	.	8r	.	8r	.	(16ccc#\LL	.
.	.	.	.	16a/)	.	.	.	.	.	.	.	.	.	.	.	16aa\)	.
.	.	8eL 8c#/	.	16g#X'/	.	.	.	8A/L	.	8e\L	.	8c#/L	.	8a\L	.	16gg#X'\	.
!	!	!	!	!LO:SIC:v:s=16a'/JJ	!	!	!	!	!	!	!	!	!	!	!	!	!
.	.	.	.	16a/JJ	.	.	.	.	.	.	.	.	.	.	.	16aa'\	.
8r	.	8eJ 8c#/	.	(16ff#\LL	.	.	.	8A/J	.	8e\J	.	8c#/J	.	8a\J	.	(16fff#\	.
.	.	.	.	16ee\JJ)	.	.	.	.	.	.	.	.	.	.	.	16eee\JJ)	.
=11	=11	=11	=11	=11	=11	=11	=11	=11	=11	=11	=11	=11	=11	=11	=11	=11	=11
4E\	.	8r	.	(16dd#X\LL	.	.	.	8r	.	8r	.	8r	.	8r	.	(16ddd#X\LL	.
.	.	.	.	16ee\JJ)	.	.	.	.	.	.	.	.	.	.	.	16eee\JJ)	.
!	!	!	!	!LO:MO:mod=!null:null	!	!	!	!	!	!	!	!	!	!	!	!	!
!	!	!	!	!LO:N:vis=8	!	!	!	!	!	!	!	!	!	!	!	!	!
.	.	8eL 8d/	.	8.b\L	.	.	.	8d\L	.	8e\L	.	8d/L	.	8g#\L	.	8.bb\L	.
8r	.	8eJ 8d/	.	.	.	.	.	8d\J	.	8e\J	.	8d/J	.	8g#\J	.	.	.
!	!	!	!	!LO:MO:mod=!null:null	!	!	!	!	!	!	!	!	!	!	!	!	!
!	!	!	!	!LO:N:vis=8	!	!	!	!	!	!	!	!	!	!	!	!LO:SIC:v:s=16dddn\Jk	!
.	.	.	.	16ddn\J	.	.	.	.	.	.	.	.	.	.	.	16ddd#\Jk	.
!	!	!	!	!LO:LB:g=original	!	!	!	!	!	!	!	!	!	!	!	!	!
=12	=12	=12	=12	=12	=12	=12	=12	=12	=12	=12	=12	=12	=12	=12	=12	=12	=12
8AL 8AA\	.	8eL 8c#/	.	16cc#/LL	.	.	.	8A/	.	8e\	.	8c#/	.	8a\	.	16ccc#\LL	.
.	.	.	.	16g#X/JJ	.	.	.	.	.	.	.	.	.	.	.	16gg#X\JJ	.
8AJ 8AA\	.	8eJ 8c#/	.	4a/	.	.	.	4A/	.	4e\	.	4c#/	.	4a\	.	4aa\	.
8r	.	8r	.	.	.	.	.	.	.	.	.	.	.	.	.	.	.
!	!	!	!	!	!	!	!	!	!	!	!	!	!	!	!	!LO:LB:g=original	!
=13	=13	=13	=13	=13	=13	=13	=13	=13	=13	=13	=13	=13	=13	=13	=13	=13	=13
*	*	*	*	*^	*	*	*	*	*	*	*	*	*	*	*	*	*
*	*	*	*	*cue	*	*	*	*	*	*	*	*	*	*	*	*	*	*
!	!	!	!	!LO:SIC:v:s=(16aa#/LL	!	!	!	!	!	!	!	!	!	!	!	!	!	!
4A 4AA\	.	8r	.	16aa#/LL	8r	.	8A/	.	8r	.	8r	.	8r	.	(>16aa#X\LL	.	(16aa#X\LL	.
!	!	!	!	!LO:SIC:v:s=16bb/JJ)	!	!	!	!	!	!	!	!	!	!	!	!	!	!
.	.	.	.	16bb/JJ	.	.	.	.	.	.	.	.	.	.	16bb\JJ)	.	16bb\JJ)	.
.	.	8e/L	.	8.cc#/L	8gL 8A\	.	4a/	.	8A/L	.	8e\L	.	8g\L	.	8.cc#\L	.	8.ccc#\L	.
8r	.	8e/J	.	.	8gJ 8A\	.	.	.	8A/J	.	8e\J	.	8g\J	.	.	.	.	.
.	.	.	.	16ee/Jk	.	.	.	.	.	.	.	.	.	.	16ee\Jk	.	16eee\Jk	.
=14	=14	=14	=14	=14	=14	=14	=14	=14	=14	=14	=14	=14	=14	=14	=14	=14	=14	=14
!	!	!	!	!	!	!	!LO:MO:mod=!null:null	!	!	!	!	!	!	!	!	!	!	!
!	!	!	!	!	!	!	!LO:N:vis=16.	!	!	!	!	!	!	!	!LO:SIC:v:s=(16gg\LL	!	!	!
4d 4D\	.	8r	.	16gg/LL	8r	.	16d/LL	.	8r	.	8r	.	8r	.	16gg\LL	.	(16ggg\LL	.
!	!	!	!	!	!	!	!LO:MO:mod=!null:null	!	!	!	!	!	!	!	!LO:SIC:v:s=16ff#\JJ)	!	!	!
!	!	!	!	!	!	!	!LO:N:vis=32	!	!	!	!	!	!	!	!	!	!	!
.	.	.	.	16ff#/JJ	.	.	16f#/JJK	.	.	.	.	.	.	.	16ff#\JJ	.	16fff#\JJ)	.
.	.	.	.	.	.	.	.	.	.	.	.	.	.	.	.	.	.	.
.	.	8d/L	.	8.dd/L	8f#L 8A\	.	8a/L	.	8A/L	.	8d\L	.	8f#/L	.	8.dd\L	.	4ddd\	.
8r	.	8d/J	.	.	8f#J 8A\	.	8d/J	.	8A/J	.	8d\J	.	8f#/J	.	.	.	.	.
!	!	!	!	!	!	!	!	!	!	!	!	!	!	!	!LO:SIC:v:s=16aa\Jk	!	!	!
.	.	.	.	16aa/Jk	.	.	.	.	.	.	.	.	.	.	16aan\Jk	.	.	.
!	!	!	!	!	!	!	!	!	!	!	!	!	!	!	!LO:LB:g=original	!	!	!
=15	=15	=15	=15	=15	=15	=15	=15	=15	=15	=15	=15	=15	=15	=15	=15	=15	=15	=15
!	!	!	!	!LO:SIC:v:s=(16aa#X/LL	!	!	!	!	!	!	!	!	!	!	!	!	!LO:SIC:v:s=(16aa#X\LL	!
4A 4AA\	.	8r	.	16aa#X/LL	8r	.	8A/	.	8r	.	8r	.	8r	.	(>16aa#X\LL	.	16aa#X\LL	.
!	!	!	!	!LO:SIC:v:s=16bb/JJ)	!	!	!	!	!	!	!	!	!	!	!	!	!LO:SIC:v:s=16bb\JJ)	!
.	.	.	.	16bb/JJ	.	.	.	.	.	.	.	.	.	.	16bb\JJ)	.	16bb\JJ	.
!	!	!	!	!LO:MO:mod=!null:null	!	!	!	!	!	!	!	!	!	!	!	!	!	!
!	!	!	!	!LO:N:vis=4	!	!	!	!	!	!	!	!	!	!	!	!	!	!
.	.	8e/L	.	8.cc#/L	8gL 8A\	.	4a/	.	8A/L	.	8e\L	.	8g\L	.	8.cc#\L	.	8.ccc#\L	.
8r	.	8e/J	.	.	8gJ 8A\	.	.	.	8A/J	.	8e\J	.	8g\J	.	.	.	.	.
.	.	.	.	16ee/Jk	.	.	.	.	.	.	.	.	.	.	16ee\Jk	.	16eee\Jk	.
=16	=16	=16	=16	=16	=16	=16	=16	=16	=16	=16	=16	=16	=16	=16	=16	=16	=16	=16
!	!	!	!	!	!	!	!	!	!	!	!	!	!	!	!LO:SIC:v:s=(16gg\LL	!	!	!
8D\L	.	8d/L	.	16gg/LL	8f#L 8A\	.	8d/	.	8d\	.	8f#\	.	8f#/L	.	16gg\LL	.	(16ggg\LL	.
!	!	!	!	!	!	!	!	!	!	!	!	!	!	!	!LO:SIC:v:s=16ff#\JJ)	!	!	!
.	.	.	.	16ff#/JJ	.	.	.	.	.	.	.	.	.	.	16ff#\JJ	.	16fff#\JJ)	.
8d\J	.	8d/J	.	4dd/	8f#J 8A\	.	4dd\	.	4F#/	.	4d\	.	8f#/J	.	4dd\	.	4ddd\	.
8r	.	8r	.	.	8r	.	.	.	.	.	.	.	8r	.	.	.	.	.
*	*	*	*	*v	*v	*	*	*	*	*	*	*	*	*	*	*	*	*
!	!	!LO:LB:g=original	!	!	!	!	!	!	!	!	!	!	!	!	!	!	!
=17:|!|:	=17:|!|:	=17:|!|:	=17:|!|:	=17:|!|:	=17:|!|:	=17:|!|:	=17:|!|:	=17:|!|:	=17:|!|:	=17:|!|:	=17:|!|:	=17:|!|:	=17:|!|:	=17:|!|:	=17:|!|:	=17:|!|:	=17:|!|:
*>C	*	*>C	*	*>C	*	*>C	*	*>C	*	*>C	*	*>C	*	*>C	*	*>C	*
*k[f#c#]	*	*k[f#cn]	*	*k[f#cn]	*	*k[f#c#]	*	*k[f#c#]	*	*k[f#c#]	*	*k[f#c#]	*	*k[f#c#]	*	*k[f#cn]	*
*mk[f#]	*	*mk[f#]	*	*mk[f#]	*	*	*	*	*	*	*	*mk[f#]	*	*mk[f#]	*	*mk[f#]	*
*	*	*	*	*^	*	*	*	*	*	*	*	*	*	*	*	*	*
!	!LO:DY:t= :mod=%s	!	!	!	!	!	!	!	!	!	!LO:MO:mod=!null:null	!	!LO:TX:t=P:problem=brak zmiany tonacji (w wersji dyplomatycznej nie powinno być bemola - zgłoszone do J.I.)	!	!	!LO:DY:t= :mod=%s	!	!LO:DY:t= :mod=%s
!	!	!	!	!	!	!	!LO:MO:mod=!null:null	!	!LO:MO:mod=!null:null	!	!	!	!LO:MO:mod=!null:null	!	!	!	!	!
!	!LO:MO:mod=!LO&colon;DY&colon;ed=brack	!	!	!	!	!LO:MO:mod=!null:null	!LO:TX:a:t=8	!	!LO:TX:a:t=4	!	!LO:TX:a:t=4	!	!LO:TX:a:t=4	!	!LO:TX:t=P:problem=brak zmiany tonacji (w wersji dyplomatycznej nie powinno być bemola - zgłoszone do J.I.)	!LO:MO:mod=!LO&colon;DY&colon;ed=brack	!	!LO:MO:mod=!LO&colon;DY&colon;ed=brack
!	!	!	!	!	!	!	!LO:MO:mod=!null:null	!	!LO:MO:mod=!null:null	!	!LO:MO:mod=!null:null	!	!LO:MO:mod=!null:null	!	!	!	!	!
!	!null	!	!	!	!	!LO:DY:rj	!LO:N:vis=00	!	!LO:N:vis=00	!	!LO:N:vis=00	!	!LO:N:vis=00	!	!	!null	!	!null
4G\	p	8r	.	16.gg/LL	8r	p	1.r	.	1.r	.	1.r	.	1.r	.	16.g\LL	p	16.gg\LL	p
.	.	.	.	32aa/JJk	.	.	.	.	.	.	.	.	.	.	32a\JJk	.	32aa\JJK	.
!	!	!	!LO:DY:t= :mod=%s	!	!	!	!	!	!	!	!	!	!	!	!	!	!	!
!	!	!	!LO:MO:mod=!LO&colon;DY&colon;ed=brack	!	!	!	!	!	!	!	!	!	!	!	!	!	!	!
!	!	!	!null	!	!	!	!	!	!	!	!	!	!	!	!	!	!	!
.	.	8dL 8G/	p	8.bb/L	8dL 8B/	.	.	.	.	.	.	.	.	.	8.b\L	.	8.bb\L	.
8r	.	8dJ 8G/	.	.	8dJ 8B/	.	.	.	.	.	.	.	.	.	.	.	.	.
!	!	!	!	!LO:SIC:v:s=16ccc/Jk	!	!	!	!	!	!	!	!	!	!	!	!	!LO:SIC:v:s=16ccc\Jk	!
.	.	.	.	16cccnX/Jk	.	.	.	.	.	.	.	.	.	.	16cc\Jk	.	16cccn\Jk	.
!	!	!	!	!LO:LB:g=original	!	!	!	!	!	!	!	!	!	!	!	!	!LO:LB:g=original	!
=18	=18	=18	=18	=18	=18	=18	=18	=18	=18	=18	=18	=18	=18	=18	=18	=18	=18	=18
*	*	*rep	*	*	*	*	*	*	*	*	*	*	*	*	*	*	*	*
!	!	!	!	!LO:SIC:v:s=(16ccc#X/LL	!	!	!	!	!	!	!	!	!	!	!LO:SIC:v:s=(16cc#\LL	!	!	!
4G\	.	8r	.	(<16ccc#X/LL	8r	.	.	.	.	.	.	.	.	.	16cc#X\LL	.	(>16ccc#X\LL	.
!	!	!	!	!	!	!	!	!	!	!	!	!	!	!	!LO:SIC:v:s=16dd\JJ)	!	!	!
.	.	.	.	16ddd/JJ)	.	.	.	.	.	.	.	.	.	.	16dd\JJ	.	16ddd\JJ)	.
.	.	8dL 8G/	.	8.gg/L	8dL 8B/	.	.	.	.	.	.	.	.	.	8.g\L	.	8.gg\L	.
8r	.	8dJ 8G/	.	.	8dJ 8B/	.	.	.	.	.	.	.	.	.	.	.	.	.
.	.	.	.	16bb/Jk	.	.	.	.	.	.	.	.	.	.	16b\Jk	.	16bb\Jk	.
*	*	*Xrep	*	*	*	*	*	*	*	*	*	*	*	*	*	*	*	*
!LO:LB:g=original	!	!	!	!	!	!	!	!	!	!	!	!	!	!	!	!	!	!
=19	=19	=19	=19	=19	=19	=19	=19	=19	=19	=19	=19	=19	=19	=19	=19	=19	=19	=19
!	!	!	!	!	!	!	!	!	!	!	!	!	!	!	!LO:MO:mod=!null:null	!	!LO:MO:mod=!null:null	!
!	!	!	!	!	!	!	!	!	!	!	!	!	!	!	!LO:TUP:a:problem=klamra łukowa	!	!LO:TUP:a:problem=klamra łukowa	!
4D\	.	8r	.	24aa/LL	8r	.	.	.	.	.	.	.	.	.	24a\LL	.	24aa\LL	.
.	.	.	.	24bb/	.	.	.	.	.	.	.	.	.	.	24b\	.	24bb\	.
!	!	!	!	!	!	!	!	!	!	!	!	!	!	!	!LO:SIC:v:s=24ccny\JJ	!	!LO:SIC:v:s=24ccc\JJ	!
.	.	.	.	24ccc/JJ	.	.	.	.	.	.	.	.	.	.	24cc#\JJ	.	24cccn\JJ	.
.	.	8dL 8c/	.	8dd/L	8f#L 8A/	.	.	.	.	.	.	.	.	.	8d/L	.	8dd\L	.
8r	.	8dJ 8c/	.	16ee/L	8f#J 8A/	.	.	.	.	.	.	.	.	.	16e/L	.	16ee\L	.
.	.	.	.	16ff#/JJ	.	.	.	.	.	.	.	.	.	.	16f#/JJ	.	16ff#\JJ	.
=20	=20	=20	=20	=20	=20	=20	=20	=20	=20	=20	=20	=20	=20	=20	=20	=20	=20	=20
4G\	.	8r	.	16gg/LL	8r	.	.	.	.	.	.	.	.	.	16g\LL	.	16gg\LL	.
.	.	.	.	16bb/JJ	.	.	.	.	.	.	.	.	.	.	16b\JJ	.	16bb\JJ	.
.	.	8dL 8G/	.	8eee/L	8gL 8B/	.	.	.	.	.	.	.	.	.	8ee\L	.	8eee\L	.
8r	.	8dJ 8G/	.	8ddd/J	8gJ 8B/	.	.	.	.	.	.	.	.	.	8dd\J	.	8ddd\J	.
!	!	!	!	!	!	!	!	!	!	!	!	!	!LO:LB:g=original	!	!	!	!	!
=21	=21	=21	=21	=21	=21	=21	=21	=21	=21	=21	=21	=21	=21	=21	=21	=21	=21	=21
!	!	!	!	!LO:SIC:v:s=8qaa/	!	!	!	!	!	!	!	!	!	!	!	!	!LO:SIC:v:s=8qaa/	!
.	.	.	.	16qqaa/	.	.	.	.	.	.	.	.	.	.	8qa/	.	32qqaa/	.
!	!	!	!	!	!	!	!LO:MO:mod=!null:null	!	!	!	!	!	!	!	!	!	!	!
!	!	!	!	!	!	!	!LO:N:vis=00	!	!	!	!	!	!	!	!	!	!	!
8G\L	.	8r	.	16gg/LL	8r	.	1.r	.	8r	.	8r	.	8r	.	16g\LL	.	16gg\LL	.
.	.	.	.	16ff#/	.	.	.	.	.	.	.	.	.	.	16f#\	.	16ff#\	.
8G\	.	8dL 8G/	.	16gg/	8dL 8B/	.	.	.	8d\L	.	8g\L	.	8B/L	.	16g\	.	16gg\	.
.	.	.	.	16aa/	.	.	.	.	.	.	.	.	.	.	16a\	.	16aa\	.
8G\J	.	8dJ 8G/	.	16bb/	8dJ 8B/	.	.	.	8d\J	.	8g\J	.	8B/J	.	16b\	.	16bb\	.
!	!	!	!	!	!	!	!	!	!	!	!	!	!	!	!LO:SIC:v:s=16ccny\JJ	!	!	!
.	.	.	.	16ccc/JJ	.	.	.	.	.	.	.	.	.	.	16cc#\JJ	.	16ccc\JJ	.
!	!	!	!	!	!	!	!	!	!	!	!LO:LB:g=original	!	!	!	!LO:LB:g=original	!	!LO:LB:g=original	!
=22	=22	=22	=22	=22	=22	=22	=22	=22	=22	=22	=22	=22	=22	=22	=22	=22	=22	=22
*	*	*rep	*	*	*	*	*	*	*	*	*	*	*	*	*	*	*	*
!	!	!	!	!	!	!	!	!	!	!	!	!	!	!	!LO:SIC:v:s=(16cc#\LL	!	!	!
!	!	!	!	!LO:SIC:v:s=(16ccc#X/LL	!	!	!	!	!	!	!	!	!	!	!	!	!	!
8G\L	.	8r	.	16ccc#X/LL	8r	.	.	.	8r	.	8r	.	8r	.	16cc#X\LL	.	(>16ccc#X\LL	.
!	!	!	!	!	!	!	!	!	!	!	!	!	!	!	!LO:SIC:v:s=16dd\JJ)	!	!	!
!	!	!	!	!LO:SIC:v:s=16ddd/JJ)	!	!	!	!	!	!	!	!	!	!	!	!	!	!
.	.	.	.	16ddd/JJ	.	.	.	.	.	.	.	.	.	.	16dd\JJ	.	16ddd\JJ)	.
!	!	!	!	!	!	!	!	!	!	!	!	!	!	!	!LO:SIC:v:s=8g^\L	!	!LO:SIC:v:s=8gg^\L	!
8G\J	.	8dL 8G/	.	8gg/L	8dL 8B/	.	.	.	8d\L	.	8g\L	.	8B/L	.	8g\L	.	8gg^<\L	.
8r	.	8dJ 8G/	.	16aa/L	8dJ 8B/	.	.	.	8d\J	.	8g\J	.	8B/J	.	16a\L	.	16aa\L	.
.	.	.	.	16bb/JJ	.	.	.	.	.	.	.	.	.	.	16b\JJ	.	16bb\JJ	.
!	!	!	!	!	!LO:LB:g=original	!	!	!	!	!	!	!	!	!	!	!	!	!
*	*	*Xrep	*	*	*	*	*	*	*	*	*	*	*	*	*	*	*	*
=23	=23	=23	=23	=23	=23	=23	=23	=23	=23	=23	=23	=23	=23	=23	=23	=23	=23	=23
!	!	!	!	!	!	!	!	!	!	!	!	!	!	!	!LO:MO:mod=!null:null	!	!LO:MO:mod=!null:null	!
!	!	!	!	!LO:TUP:a:problem=klamra łukowa	!	!	!	!	!	!	!	!	!	!	!LO:TUP:a	!	!LO:TUP:a	!
!	!	!	!	!	!	!	!	!	!	!	!	!	!LO:SIC:v:s=8cny/L	!	!	!	!	!
4D\	.	8r	.	24aa/LL	8r	.	.	.	8d\L	.	8f#\L	.	8c#/L	.	24a\LL	.	24aa\LL	.
.	.	.	.	24bb/	.	.	.	.	.	.	.	.	.	.	24b\	.	24bb\	.
!	!	!	!	!	!	!	!	!	!	!	!	!	!	!	!LO:SIC:v:s=24ccny\JJ	!	!LO:SIC:v:s=24ccc\JJ	!
.	.	.	.	24ccc/JJ	.	.	.	.	.	.	.	.	.	.	24cc#\JJ	.	24cccn\JJ	.
!	!	!	!	!	!	!	!	!	!	!	!	!	!LO:SIC:v:s=8cny/	!	!	!	!	!
.	.	8dL 8c/	.	8dd/L	8f#L 8A/	.	.	.	8d\	.	8f#\	.	8c#/	.	8d/L	.	8dd\L	.
!	!	!	!	!	!	!	!	!	!	!	!	!	!LO:SIC:v:s=8cny/J	!	!	!	!	!
8r	.	8dJ 8c/	.	16ee/L	8f#J 8A/	.	.	.	8d\J	.	8f#\J	.	8c#/J	.	16e/L	.	16ee\L	.
.	.	.	.	16ff#/JJ	.	.	.	.	.	.	.	.	.	.	16f#/JJ	.	16ff#\JJ	.
=24	=24	=24	=24	=24	=24	=24	=24	=24	=24	=24	=24	=24	=24	=24	=24	=24	=24	=24
!	!	!	!	!	!	!	!	!	!	!	!	!	!LO:TX:t=P:problem=mixed beam	!	!	!	!	!
8G\L	.	8dL 8G/	.	8gg/	8gL 8B/	.	.	.	8d\L	.	8g\L	.	8B/L	.	8g\L	.	8gg\L	.
!	!	!	!	!	!	!	!	!	!	!	!	!	!LO:SIC:v:s=8b^\J	!	!LO:SIC:v:s=8gg^\J	!	!LO:SIC:v:s=8ggg^\J	!
8G\J	.	8dJ 8G/	.	8ggg/	8gJ 8B/	.	.	.	8d\J	.	8g\J	.	8b\J	.	8gg\J	.	8ggg^<\J	.
8r	.	8r	.	8r	8ryy	.	.	.	8r	.	8r	.	8r	.	8r	.	8r	.
!LO:MO:mod=!LO&colon;TX&colon;b&colon;i&colon;t=Mazur Da Capo	!	!	!	!LO:MO:mod=!null:null	!	!	!LO:MO:mod=!null:null	!	!	!	!	!	!	!	!	!	!	!
!LO:TX:a:t=Mazur Da Capo	!	!	!	!LO:TX:a:t=Mazur Da Capo	!	!	!LO:TX:a:t=Mazur D&colon; C&colon;	!	!	!	!	!	!	!	!	!	!	!
*	*	*	*	*v	*v	*	*	*	*	*	*	*	*	*	*	*	*	*
=:|!	=:|!	=:|!	=:|!	=:|!	=:|!	=:|!	=:|!	=:|!	=:|!	=:|!	=:|!	=:|!	=:|!	=:|!	=:|!	=:|!	=:|!
*-	*-	*-	*-	*-	*-	*-	*-	*-	*-	*-	*-	*-	*-	*-	*-	*-	*-
!!!system-decoration: [(g1)][(g2)][(g3)]
!!!RDF**kern: < = below
!!!RDF**kern: > = above
!!!filter-modern: sic -sq | modori -m | autostem -r | shed -e "s/:problem(:?)/:PROBLEM$1/L" |shed -e "s/^(X?)rep$/$1REP/I"
!!!ENC: Andrzej Gręziak
!!!END: 2020-10-03
!!!ENC: Marta Chmielewska
!!!END: 2021-11-02
!!!ENC-modern: Katarzyna Serwa
!!!END-modern: 2022-06-08
!!!YEC: Copyright 2022 Narodowy Instytut Fryderyka Chopina (https://polishscores.org)
!!!YEM: License CC-BY-4.0 (https://creativecommons.org/licenses/by/4.0)
